surround-sound-5-1.svg

<svg fill="currentColor" viewBox="0 0 24 24"><path d="M14 17h-2v-2h2zm6-10v10h-2V9h-2V7zM10 7v2H6v2h2c1.1 0 2 .9 2 2v2c0 1.1-.9 2-2 2H4v-2h4v-2H4V7z"/></svg>

<svg  viewBox="0 0 24 24" fill="currentColor"><path  d="M14 17H12V15H14V17M20 7V17H18V9H16V7H20M10 7V9H6V11H8C9.1 11 10 11.9 10 13V15C10 16.1 9.1 17 8 17H4V15H8V13H4V7H10Z"/></svg>
